img/tiktok.svg

<svg width="24" height="24" viewBox="0 0 24 24" fill="none" xmlns="http://www.w3.org/2000/svg">
<path d="M22.459 6.84603V10.505C22.262 10.505 22.026 10.545 21.79 10.545C20.0742 10.5363 18.4164 9.92301 17.108 8.81303V16.603C17.1152 18.1367 16.6177 19.6302 15.692 20.853C15.0396 21.7307 14.1912 22.4437 13.2144 22.9354C12.2377 23.4271 11.1595 23.6838 10.066 23.685C8.87638 23.685 7.70643 23.3814 6.66685 22.8031C5.62726 22.2247 4.75239 21.3908 4.125 20.38C5.384 21.56 7.075 22.308 8.925 22.308C10.0137 22.3105 11.0874 22.055 12.0584 21.5626C13.0293 21.0702 13.8698 20.3548 14.511 19.475C15.377 18.295 15.928 16.839 15.928 15.226V7.39603C17.187 8.49803 18.8 9.12803 20.61 9.12803C20.846 9.12803 21.043 9.12803 21.279 9.08803V6.72803C21.633 6.80703 21.948 6.84603 22.302 6.84603H22.459Z" fill="#FF004F"/>
<path d="M11.05 9.56V13.613C10.7679 13.5352 10.4767 13.4955 10.184 13.495C8.45202 13.495 7.03602 14.951 7.03602 16.721C7.03602 17.115 7.11502 17.469 7.23302 17.823C6.44602 17.233 5.89502 16.288 5.89502 15.226C5.89502 13.456 7.31102 12 9.04302 12C9.35702 12 9.63302 12.04 9.90802 12.118V9.521H10.144C10.459 9.521 10.774 9.521 11.049 9.561L11.05 9.56ZM17.698 3.934C16.99 3.304 16.478 2.439 16.203 1.534H17.148V2.085C17.2345 2.72642 17.42 3.34953 17.698 3.934Z" fill="#FF004F"/>
<path d="M21.318 6.767V9.127C21.121 9.167 20.885 9.167 20.649 9.167C18.9335 9.1588 17.2757 8.54625 15.967 7.437V15.227C15.9738 16.76 15.4762 18.2527 14.551 19.475C13.252 21.207 11.246 22.308 8.96399 22.308C7.11399 22.308 5.42299 21.561 4.16399 20.38C3.47119 19.2565 3.10357 17.9629 3.10199 16.643C3.10199 12.826 6.13199 9.718 9.90799 9.6V12.197C9.62621 12.1193 9.3353 12.0796 9.04299 12.079C7.31099 12.079 5.89499 13.534 5.89499 15.305C5.89499 16.367 6.40699 17.351 7.23299 17.902C7.66599 19.122 8.84599 20.026 10.183 20.026C11.915 20.026 13.331 18.57 13.331 16.8V1.534H16.203C16.479 2.479 16.99 3.304 17.698 3.934C18.0556 4.64358 18.5655 5.26544 19.1913 5.75517C19.8171 6.24489 20.5432 6.59039 21.318 6.767Z" fill="black"/>
<path d="M9.90799 8.18398V9.51998C6.13099 9.63798 3.10199 12.746 3.10199 16.563C3.10199 17.94 3.49499 19.199 4.16399 20.301C3.47446 19.6324 2.92729 18.8312 2.5554 17.9456C2.18351 17.0601 1.99459 16.1084 1.99999 15.148C1.99999 11.252 5.14799 8.10498 9.00299 8.10498C9.31799 8.10498 9.63299 8.14498 9.90799 8.18398Z" fill="#00F7EF"/>
<path d="M16.203 1.534H13.331L13.331 16.721C13.331 18.491 11.915 19.948 10.184 19.948C8.80697 19.948 7.66602 19.082 7.23302 17.823C7.74402 18.177 8.37297 18.413 9.04297 18.413C10.773 18.413 12.19 16.997 12.19 15.226V0H16.007V0.079C16.007 0.236 16.007 0.393 16.046 0.551C16.046 0.866 16.125 1.22 16.203 1.534ZM21.318 5.311V6.728C19.744 6.413 18.407 5.351 17.659 3.934C18.6479 4.85987 19.964 5.35516 21.318 5.311Z" fill="#00F7EF"/>
</svg>

<svg xmlns="http://www.w3.org/2000/svg" width="24" height="24" fill="none" viewBox="0 0 24 24">
  <path fill="#FF004F" d="M22.459 6.846v3.659c-.197 0-.433.04-.669.04a7.295 7.295 0 01-4.682-1.732v7.79a6.987 6.987 0 01-1.416 4.25 7.02 7.02 0 01-5.626 2.832 6.993 6.993 0 01-5.941-3.305c1.259 1.18 2.95 1.928 4.8 1.928a6.893 6.893 0 005.586-2.833c.866-1.18 1.417-2.636 1.417-4.249v-7.83c1.259 1.102 2.872 1.732 4.682 1.732.236 0 .433 0 .669-.04v-2.36c.354.079.669.118 1.023.118h.157z"/>
  <path fill="#FF004F" d="M11.05 9.56v4.053a3.277 3.277 0 00-.866-.118c-1.732 0-3.148 1.456-3.148 3.226 0 .394.079.748.197 1.102-.787-.59-1.338-1.535-1.338-2.597 0-1.77 1.416-3.226 3.148-3.226.314 0 .59.04.865.118V9.521h.236c.315 0 .63 0 .905.04zM17.698 3.934c-.708-.63-1.22-1.495-1.495-2.4h.945v.551a6.25 6.25 0 00.55 1.85z"/>
  <path fill="#000" d="M21.318 6.767v2.36c-.197.04-.433.04-.669.04a7.295 7.295 0 01-4.682-1.73v7.79a6.987 6.987 0 01-1.416 4.248c-1.299 1.732-3.305 2.833-5.587 2.833-1.85 0-3.541-.747-4.8-1.928a7.136 7.136 0 01-1.062-3.737c0-3.817 3.03-6.925 6.806-7.043v2.597a3.277 3.277 0 00-.865-.118c-1.732 0-3.148 1.455-3.148 3.226 0 1.062.512 2.046 1.338 2.597.433 1.22 1.613 2.124 2.95 2.124 1.732 0 3.148-1.456 3.148-3.226V1.534h2.872c.276.945.787 1.77 1.495 2.4a5.397 5.397 0 003.62 2.833z"/>
  <g>
    <path fill="#00F7EF" d="M9.908 8.184V9.52c-3.777.118-6.806 3.226-6.806 7.043 0 1.377.393 2.636 1.062 3.738A7.122 7.122 0 012 15.148c0-3.896 3.148-7.043 7.003-7.043.315 0 .63.04.905.079z"/>
    <path fill="#00F7EF" d="M16.203 1.534h-2.872v15.187c0 1.77-1.416 3.227-3.147 3.227-1.377 0-2.518-.866-2.951-2.125.511.354 1.14.59 1.81.59 1.73 0 3.147-1.416 3.147-3.187V0h3.817v.079c0 .157 0 .314.039.472 0 .315.079.669.157.983zM21.318 5.311v1.417c-1.574-.315-2.911-1.377-3.659-2.794a5.11 5.11 0 003.659 1.377z"/>
  </g>
</svg>
